!!!!SEGMENT: Ver3014-Amor_io_sento_lalma.krn
!!!id: Ver3014
!!!AGN: Madrigal
!!!SCT: Slim (1972)
!!!voices: 4
!!!COM: Philippe Verdelot
!!!OTL: Amor, io sento l'alma
**kern	**kern	**kern	**kern
*part4	*part3	*part2	*part1
*staff4	*staff3	*staff2	*staff1
*I"Bassus	*I"Tenor	*I"Altus	*I"Superius
*I'B	*I'T	*I'A	*I'S
*clefF4	*clefGv2	*clefGv2	*clefG2
*k[]	*k[]	*k[]	*k[]
*C:	*C:	*C:	*C:
*M2/1	*M2/1	*M2/1	*M2/1
*met(C)	*met(C)	*met(C)	*met(C)
=1	=1	=1	=1
0c	0e	0g	0cc
=2	=2	=2	=2
1F	1f	1a	1cc
1F	1a	2.f	1cc
.	.	4e	.
=3	=3	=3	=3
2G	2g	2d	2b
2A	2f	2c	2a
1G	1g	1d	1b
=4	=4	=4	=4
1C	1e	1c	1g
2r	2r	2r	2r
2C	2c	2e	2g
=5	=5	=5	=5
2.F	2c	2.f	2.a
.	2c	.	.
4C	.	4e	4g
2D	2A	2d	2f
2C	[2c	2g	2e
=6	=6	=6	=6
1G	2c]	1g	1d
.	4B	.	.
.	4A	.	.
2G	2B	2g	2d
2C	2c	2e	2g
=7	=7	=7	=7
2C	2G	2e	2g
2C	2c	2e	2g
2G	2d	2d	2g
2G	2e	2B	2g
=8	=8	=8	=8
2F	2.f	2c	2.a
2F	.	2A	.
.	4e	.	4g
2BB-X	2d	2B-X	2f
2C	[2c	2G	2e
=9	=9	=9	=9
1G	4c]	1g	1d
.	8BL	.	.
.	8AJ	.	.
.	2B	.	.
2C	2c	2e	2c
2C	2g	2e	2cc
=10	=10	=10	=10
2G	2g	2d	2dd
2G	2g	2B	2ee
2F	2.a	2c	2.ff
2F	.	2A	.
.	4g	.	4ee
=11	=11	=11	=11
2BB-X	2f	2B-X	2dd
2C	2e	2G	2.cc
1G	1d	1g	.
.	.	.	8bL
.	.	.	8aJ
.	.	.	2b
=12	=12	=12	=12
0C;	0c;	0e;	0cc;
=13	=13	=13	=13
1C	1G	1e	1cc
2F	2A	2f	2cc
2E	2c	2g	2cc
=14	=14	=14	=14
2D	2c	2f	2dd
2D	2B	2f	2dd
1C	4c	4e	1ee
.	4B	4d	.
.	4c	4e	.
.	4d	4f	.
=15	=15	=15	=15
2C	2e	2g	2cc
2C	2g	2e	2ee
2D	2f	2f	2dd
2E	2e	2g	2cc
=16	=16	=16	=16
2F	2d	2a	2cc
2G	2d	2.g	2b
1A	1c	.	1cc
.	.	8f#iL	.
.	.	8eJ	.
.	.	2f#i	.
=17	=17	=17	=17
1G	1d	1g	1b
2r	2r	2r	2r
2G	2g	2d	2b
=18	=18	=18	=18
2G	2g	2d	2b
2G	2g	2d	2b
2G	2g	2d	2b
2G	2g	2d	2b
=19	=19	=19	=19
2D	2f	2d	2a
2G	2g	2d	2b
2F	2a	2f	2cc
2G	2g	2d	2b
=20	=20	=20	=20
0D	2.f	0d	2.a
.	4e	.	4g
.	4f	.	4a
.	2g	.	4b
.	.	.	2a
.	4f#i	.	.
=21	=21	=21	=21
1G	1g	1d	1g
2r	2r	2r	2r
2G	2g	2d	2b
=22	=22	=22	=22
2.F	2.a	2.f	2.cc
4G	4g	4d	4b
2D	2f	2d	2a
2E	[2g	2B	2g
=23	=23	=23	=23
1D	2g]	1d	1a
.	2f	.	.
2G	2g	2d	2g
2E	2G	2e	2g
=24	=24	=24	=24
2C	2.c	2e	2g
2C	.	2e	2g
.	4B	.	.
2D	2A	2d	2f
2E	2G	2c	[2g
=25	=25	=25	=25
1D	1A	1d	4g]
.	.	.	8f#iL
.	.	.	8eJ
.	.	.	2f#i
1G	2G	1d	1g
.	4G	.	.
.	4A	.	.
=26	=26	=26	=26
2r	4B	2r	1dd
.	4c	.	.
2G	4d	2B	.
.	4e	.	.
2F	2f	2A	2dd
2E	[2g	2G	2cc
=27	=27	=27	=27
1D	2g]	1A	1dd
.	2f#i	.	.
1G	2g	2G	1b
.	2d	2g	.
=28	=28	=28	=28
2F	2.f	2a	2cc
2F	.	2a	2cc
.	4e	.	.
2G	2d	2g	2b
2A	2c	2f	2a
=29	=29	=29	=29
1G	1d	1g	1b
1C	1c	1e	1g
=30	=30	=30	=30
2r	2r	2r	2r
2C	2c	2e	2g
2.F	2c	2.f	2.a
.	2c	.	.
4C	.	4e	4g
=31	=31	=31	=31
2D	2A	2d	2f
2C	1c	2g	2e
1G	.	1g	1d
.	4B	.	.
.	4A	.	.
=32	=32	=32	=32
2G	2B	2g	2d
2C	2c	2e	2g
2C	2G	2e	2g
2C	2c	2e	2g
=33	=33	=33	=33
2G	2d	2d	2g
2G	2e	2B	2g
2F	2.f	2c	2.a
2F	.	2A	.
.	4e	.	4g
=34	=34	=34	=34
2BB-X	2d	2B-X	2f
2C	2.c	2G	2e
1G	.	1g	1d
.	8BL	.	.
.	8AJ	.	.
.	2B	.	.
=35	=35	=35	=35
2C	2c	2e	2c
2C	2g	2e	2cc
2G	2g	2d	2dd
2G	2g	2B	2ee
=36	=36	=36	=36
2F	2.a	2c	2.ff
2F	.	2A	.
.	4g	.	4ee
2BB-X	2f	2B-X	2dd
2C	2e	2G	[2cc
=37	=37	=37	=37
1G	1d	1g	4cc]
.	.	.	8bL
.	.	.	8aJ
.	.	.	2b
1C	1c	1e	[1ccl
=38	=38	=38	=38
2r	2r	2r	0cc_
2c	2g	2e	.
2c	2g	2e	.
2c	2g	2e	.
=39	=39	=39	=39
2.F	2.a	2.c	0cc_
4F	4g	4B	.
2F	2f	2A	.
2C	2e	2G	.
=40	=40	=40	=40
1F	1f	1A	0cc_
[1Cl	[1el	[1Gl	.
=41	=41	=41	=41
00C]	00e]	00G]	00cc]
==	==	==	==
*-	*-	*-	*-
!!!system-decoration: [*]
!!!RDF**kern: i = editorial accidental
!!!RDF**kern: l = terminal long
!!!ENC: Benjamin Ory
!!!END: 2021/2/7
!!!EED: Benjamin Ory
!!!EEV: 2021/04/29
!!!YEC: Copyright 2021 Benjamin Ory, All Rights Reserved
!!!ONB: Translated from MusicXML on 2021/04/29
